X:115
%%pagewidth 8in
%%vocalfont Baskerville10Pro 12
T:A very proper dittie: to the tune of Lightie Love
M:3/8
L:1/8
K:Eb
%%score 1 2
V:1 clef-treble
V:2 clef-bass octave=-1
V:1
B|B>cd&B2A|[Gd]BG|A>BG&D2E|F2B&D3|B>cd&B2A|
w:By force I am fix-ed my fan-cy to write, In-gra-tit-ude 
w:Then blame me not, ladies,* al-though I in-dite What ligh-ty love 
V:2
z|G2F|E3|F2E|B,2A,|G,2F,|
V:1
eBG&G2x|FED&C2x|E2:||:E|c>dc&E3|BAG&F2E|
w:will-eth me not to re-frain: Your tra-ces in pla-ces, to 
w:now* amongst* you doth reign: Your ni-cings and 'ti-cings, with 
V:2
E,3|x2F&A,2B,|G2&E,2:||:z|A3|D2E|
V:1
A>BG&D2E|F2G&D3|A>Bc/d/&F3|eBG&E2x|FED&C3|E2:||
w:out-ward allure-ments, Do move* my en-deavour* to be the more plain:
w:sundry* procure-ments, To pub-lish your* lightie* love do me cons-train.
V:2
F2E|B,3|F,3|G,2C|A,2[B,F]|[E,G]2:||

